images/client2.svg

<svg width="170" height="90" viewBox="0 0 170 90" fill="none" xmlns="http://www.w3.org/2000/svg">
<rect x="0.5" y="0.5" width="169" height="89" rx="3.5" stroke="#AFB1B8"/>
<path d="M81.977 21.9345H82.1136C82.3666 21.9345 82.6398 21.9599 82.9105 21.9828C84.1032 22.067 85.2874 22.2455 86.4521 22.5168V19.6535C85.2528 19.3526 84.0297 19.1578 82.7967 19.0712C82.3287 19.0356 81.8303 19.0127 81.3193 19H80.8918C78.4169 19.0093 75.9527 19.3271 73.5556 19.946C70.8253 20.6269 68.2047 21.6928 65.7716 23.1119V51.5086C68.1143 50.2357 70.6072 49.2643 73.1913 48.6173C75.2317 48.0967 77.3175 47.7765 79.4195 47.6612H79.503C79.8546 47.6434 80.2062 47.6332 80.568 47.6306V44.7216C77.8367 44.7567 75.1193 45.1178 72.4728 45.7972C71.4938 46.0515 70.5477 46.3261 69.6598 46.6313L68.6479 46.9746V24.8334L69.0805 24.6249C72.3817 23.0595 75.9522 22.1486 79.5966 21.9421C79.6269 21.9399 79.6573 21.9399 79.6876 21.9421C80.0898 21.9218 80.4946 21.9116 80.8918 21.9116H81.3269H81.3471C81.5571 21.9167 81.7671 21.9218 81.977 21.9345Z" fill="#AFB1B8"/>
<path d="M89.1108 24.9326C88.4455 24.9326 87.7877 24.9097 87.1528 24.8614C86.3939 24.8054 85.6147 24.7139 84.876 24.5893C84.4257 24.513 83.983 24.4215 83.553 24.3223V52.3935C85.3737 52.8443 87.2433 53.0647 89.1184 53.0496C91.5931 53.0395 94.0571 52.7227 96.4546 52.1061C99.1853 51.4243 101.807 50.3585 104.241 48.9402V21.0496C101.899 22.3218 99.4068 23.294 96.8239 23.9434C94.3031 24.5908 91.7125 24.9231 89.1108 24.9326ZM100.335 25.4183L101.347 25.0775V47.2263L100.914 47.4348C99.2552 48.2243 97.5223 48.8469 95.7412 49.2937C93.5781 49.8533 91.3544 50.1412 89.1209 50.1506C88.4531 50.1506 87.7903 50.1227 87.1477 50.0667L86.4546 50.0057V47.3178V27.2288L87.2616 27.2822C87.8485 27.3204 88.4556 27.3382 89.1158 27.3382C91.9514 27.3281 94.7749 26.966 97.5221 26.26C98.4657 26.0108 99.4042 25.7311 100.335 25.4183Z" fill="#AFB1B8"/>
<path d="M67.7371 61.2123C67.5917 61.0614 67.4163 60.9429 67.2224 60.8645C67.0284 60.7861 66.8203 60.7495 66.6114 60.7571C66.3888 60.7541 66.1678 60.7956 65.9613 60.8791C65.7719 60.9546 65.5998 61.0679 65.4553 61.2123C65.3125 61.3571 65.2013 61.5303 65.129 61.7208C65.0497 61.9205 65.0101 62.1339 65.0126 62.3489V66.143C65.0036 66.4103 65.0546 66.6763 65.1619 66.9211C65.2514 67.1155 65.3807 67.2888 65.5413 67.4297C65.693 67.5573 65.871 67.6494 66.0625 67.6992C66.2469 67.7511 66.4376 67.7776 66.6291 67.7781C66.8404 67.7802 67.0495 67.735 67.2413 67.6458C67.4309 67.5629 67.6028 67.4437 67.7473 67.2949C67.8881 67.1475 68.0005 66.975 68.0786 66.7863C68.1597 66.595 68.201 66.3891 68.2001 66.1811V65.7564H67.2084V66.0947C67.2114 66.2101 67.1916 66.3251 67.1502 66.4329C67.1179 66.5136 67.0688 66.5865 67.006 66.6465C66.9446 66.6961 66.8742 66.7332 66.7986 66.7558C66.7316 66.7781 66.6617 66.7901 66.5912 66.7914C66.5026 66.8017 66.413 66.7883 66.3312 66.7526C66.2495 66.7169 66.1786 66.6601 66.1257 66.588C66.0322 66.4355 65.9864 66.2583 65.9942 66.0794V62.5422C65.988 62.3461 66.0297 62.1514 66.1156 61.9751C66.1671 61.8951 66.2399 61.8311 66.3258 61.7907C66.4117 61.7502 66.5071 61.7348 66.6013 61.7463C66.6868 61.7432 66.7717 61.7611 66.8488 61.7983C66.9259 61.8355 66.9929 61.8909 67.044 61.9599C67.155 62.1056 67.213 62.285 67.2084 62.4685V62.7965H68.19V62.41C68.1919 62.183 68.1507 61.9577 68.0685 61.7463C67.9953 61.5475 67.8825 61.3658 67.7371 61.2123Z" fill="#AFB1B8"/>
<path d="M73.6289 61.1692C73.3127 60.9022 72.9136 60.7547 72.5007 60.7522C72.2987 60.7531 72.0984 60.7892 71.9087 60.859C71.7161 60.928 71.5384 61.0333 71.3851 61.1692C71.2208 61.3169 71.0897 61.4981 71.0005 61.7007C70.9006 61.9325 70.8515 62.1831 70.8563 62.4356V66.0745C70.8495 66.3305 70.8987 66.5849 71.0005 66.8196C71.0903 67.0153 71.2215 67.1889 71.3851 67.3282C71.5367 67.4689 71.7147 67.5779 71.9087 67.6486C72.0984 67.7184 72.2987 67.7545 72.5007 67.7554C72.7027 67.755 72.9031 67.7188 73.0926 67.6486C73.29 67.5769 73.4719 67.4681 73.6289 67.3282C73.7871 67.1862 73.9145 67.0131 74.0033 66.8196C74.1051 66.5849 74.1544 66.3305 74.1475 66.0745V62.4356C74.1524 62.1831 74.1032 61.9325 74.0033 61.7007C73.9151 61.5002 73.7878 61.3195 73.6289 61.1692ZM73.166 66.0745C73.1743 66.1715 73.1609 66.2691 73.1268 66.3602C73.0926 66.4513 73.0386 66.5336 72.9687 66.6009C72.8377 66.7107 72.6725 66.7709 72.5019 66.7709C72.3313 66.7709 72.1662 66.7107 72.0352 66.6009C71.9652 66.5336 71.9112 66.4513 71.8771 66.3602C71.8429 66.2691 71.8295 66.1715 71.8379 66.0745V62.4356C71.8295 62.3386 71.8429 62.241 71.8771 62.1499C71.9112 62.0588 71.9652 61.9765 72.0352 61.9092C72.1662 61.7994 72.3313 61.7392 72.5019 61.7392C72.6725 61.7392 72.8377 61.7994 72.9687 61.9092C73.0386 61.9765 73.0926 62.0588 73.1268 62.1499C73.1609 62.241 73.1743 62.3386 73.166 62.4356V66.0745Z" fill="#AFB1B8"/>
<path d="M81.3673 67.6993V60.8105H80.4136L79.1614 64.4571H79.1437L77.8813 60.8105H76.9377V67.6993H77.9218V63.5086H77.9395L78.9033 66.4711H79.3941L80.3655 63.5086H80.3832V67.6993H81.3673Z" fill="#AFB1B8"/>
<path d="M86.9581 61.2938C86.8065 61.1238 86.6153 60.9944 86.4015 60.9174C86.1712 60.8425 85.9302 60.8064 85.6881 60.8106H84.226V67.6994H85.2075V65.009H85.7134C86.0197 65.0229 86.3244 64.9582 86.5988 64.8208C86.822 64.6969 87.0081 64.5151 87.1377 64.2944C87.2512 64.1112 87.3277 63.9073 87.3628 63.6943C87.4014 63.4351 87.4192 63.1732 87.4159 62.9111C87.4255 62.5803 87.3932 62.2496 87.3198 61.927C87.2543 61.6886 87.1299 61.4708 86.9581 61.2938ZM86.4521 63.3942C86.4479 63.519 86.4168 63.6413 86.361 63.7528C86.3049 63.8587 86.2162 63.9435 86.1081 63.9944C85.9627 64.0594 85.8041 64.089 85.6451 64.0808H85.1974V61.7388H85.7033C85.8557 61.7313 86.0075 61.761 86.146 61.8253C86.2475 61.8835 86.3281 61.9725 86.3762 62.0795C86.4299 62.2006 86.4591 62.3311 86.4622 62.4635C86.4622 62.6085 86.4622 62.7611 86.4622 62.9213C86.4622 63.0815 86.4723 63.2467 86.4622 63.3942H86.4521Z" fill="#AFB1B8"/>
<path d="M91.6077 60.8105H90.8032L89.2854 67.6993H90.2669L90.5553 66.2193H91.8935L92.1819 67.6993H93.1635L91.6077 60.8105ZM90.702 65.281L91.1852 62.7838H91.2029L91.6836 65.281H90.702Z" fill="#AFB1B8"/>
<path d="M97.9497 64.9606H97.932L96.4496 60.8105H95.506V67.6993H96.4875V63.5569H96.5078L98.0079 67.6993H98.9312V60.8105H97.9497V64.9606Z" fill="#AFB1B8"/>
<path d="M103.948 60.8105L103.158 63.5493H103.138L102.349 60.8105H101.309L102.657 64.7877V67.6993H103.639V64.7877L104.987 60.8105H103.948Z" fill="#AFB1B8"/>
<path d="M65 69.6447H65.4731V70.972H65.7943V69.6447H66.2649V69.3726H65V69.6447Z" fill="#AFB1B8"/>
<path d="M68.9767 69.3726L68.3569 70.972H68.6984L68.83 70.6084H69.4675L69.6041 70.972H69.9532L69.3182 69.3726H68.9767ZM68.9261 70.3389L69.1437 69.7464L69.3612 70.3389H68.9261Z" fill="#AFB1B8"/>
<path d="M72.9079 70.3821H73.2773V70.5881C73.1694 70.6746 73.0358 70.722 72.8978 70.7229C72.8333 70.7265 72.7689 70.7145 72.7099 70.688C72.6509 70.6614 72.5991 70.6211 72.5588 70.5703C72.474 70.4485 72.4322 70.3017 72.4399 70.1533C72.4399 69.7973 72.5942 69.6193 72.9003 69.6193C72.9809 69.6112 73.0617 69.6325 73.128 69.6791C73.1944 69.7257 73.2419 69.7947 73.2621 69.8735L73.5783 69.8125C73.51 69.4997 73.2849 69.3421 72.9003 69.3421C72.6947 69.3366 72.4947 69.4103 72.3413 69.5481C72.2607 69.6276 72.1983 69.7239 72.1586 69.8302C72.1188 69.9365 72.1026 70.0502 72.1111 70.1634C72.1017 70.3823 72.1749 70.5966 72.316 70.7636C72.3943 70.8444 72.4892 70.9071 72.594 70.9475C72.6988 70.9879 72.8111 71.0049 72.9231 70.9975C73.1734 71.0045 73.4165 70.9133 73.6011 70.7432V70.1126H72.9079V70.3821Z" fill="#AFB1B8"/>
<path d="M76.9226 69.3726H76.5988V70.972H77.7194V70.7H76.9226V69.3726Z" fill="#AFB1B8"/>
<path d="M80.3175 69.3726H79.9937V70.972H80.3175V69.3726Z" fill="#AFB1B8"/>
<path d="M83.6365 70.4406L82.9813 69.3726H82.6676V70.972H82.9686V69.9269L83.6112 70.972H83.9325V69.3726H83.6365V70.4406Z" fill="#AFB1B8"/>
<path d="M86.6368 70.2677H87.4337V69.9956H86.6368V69.6447H87.4944V69.3726H86.313V70.972H87.5273V70.7H86.6368V70.2677Z" fill="#AFB1B8"/>
<path d="M93.9122 70.0032H93.2823V69.3726H92.9611V70.972H93.2823V70.2728H93.9122V70.972H94.2335V69.3726H93.9122V70.0032Z" fill="#AFB1B8"/>
<path d="M96.9302 70.2677H97.7296V69.9956H96.9302V69.6447H97.7903V69.3726H96.6089V70.972H97.8206V70.7H96.9302V70.2677Z" fill="#AFB1B8"/>
<path d="M101.023 70.2676C101.302 70.2244 101.443 70.0769 101.443 69.8226C101.451 69.7546 101.441 69.6856 101.413 69.623C101.386 69.5603 101.342 69.5063 101.286 69.4666C101.141 69.3938 100.98 69.3614 100.818 69.3725H100.14V70.972H100.462V70.3032H100.525C100.593 70.299 100.662 70.3112 100.725 70.3388C100.772 70.3678 100.811 70.4079 100.839 70.4558L101.188 70.9644H101.572L101.377 70.6516C101.291 70.4972 101.17 70.3656 101.023 70.2676ZM100.699 70.0464H100.462V69.6446H100.715C100.825 69.6357 100.936 69.6486 101.041 69.6827C101.064 69.7034 101.083 69.7291 101.095 69.7579C101.107 69.7867 101.113 69.8179 101.111 69.8492C101.11 69.8804 101.101 69.911 101.087 69.9385C101.072 69.966 101.051 69.9899 101.026 70.0082C100.92 70.0406 100.81 70.0535 100.699 70.0464Z" fill="#AFB1B8"/>
<path d="M104.11 70.2677H104.906V69.9956H104.11V69.6447H104.97V69.3726H103.786V70.972H105V70.7H104.11V70.2677Z" fill="#AFB1B8"/>
</svg>

<svg width="170" height="90" fill="none" xmlns="http://www.w3.org/2000/svg"><rect x=".5" y=".5" width="169" height="89" rx="3.5" stroke="#AFB1B8"/><path d="M81.977 21.934h.137c.253 0 .526.026.796.049 1.193.084 2.377.262 3.542.534v-2.863c-1.2-.301-2.422-.496-3.655-.583A29.228 29.228 0 0081.319 19h-.427c-2.475.01-4.94.327-7.336.946-2.73.68-5.351 1.747-7.784 3.166v28.397a31.635 31.635 0 017.42-2.892 32.36 32.36 0 016.228-.956h.083c.352-.018.703-.028 1.065-.03v-2.91a34.329 34.329 0 00-8.095 1.076c-.98.255-1.925.53-2.813.834l-1.012.344V24.833l.433-.208a28.276 28.276 0 0110.516-2.683.628.628 0 01.09 0c.403-.02.808-.03 1.205-.03h.455c.21.005.42.01.63.023z" fill="#AFB1B8"/><path d="M89.11 24.933a25.923 25.923 0 01-4.234-.344c-.45-.076-.893-.167-1.323-.267v28.072c1.82.45 3.69.67 5.565.656a29.943 29.943 0 007.337-.944 29.809 29.809 0 007.786-3.166V21.05a31.767 31.767 0 01-7.417 2.893c-2.52.648-5.111.98-7.713.99zm11.225.485l1.012-.34v22.148l-.433.209a27.746 27.746 0 01-5.173 1.859c-2.163.56-4.387.847-6.62.857-.668 0-1.33-.028-1.973-.084l-.693-.061V27.228l.807.054a28.38 28.38 0 001.854.056c2.835-.01 5.659-.372 8.406-1.078.944-.25 1.882-.529 2.813-.842zM67.737 61.212a1.491 1.491 0 00-1.126-.455 1.674 1.674 0 00-.65.122 1.464 1.464 0 00-.832.842c-.08.2-.119.413-.116.628v3.794c-.01.267.042.533.149.778.09.194.219.368.38.509.151.127.329.22.52.27.185.051.376.078.567.078.211.002.42-.043.612-.132a1.598 1.598 0 00.96-1.465v-.425h-.993v.339a.88.88 0 01-.058.338.608.608 0 01-.144.213.697.697 0 01-.415.145.504.504 0 01-.465-.203.898.898 0 01-.132-.509v-3.537c-.006-.196.036-.39.122-.567a.507.507 0 01.485-.229.526.526 0 01.443.214.806.806 0 01.164.508v.328h.982v-.386a1.79 1.79 0 00-.121-.664 1.56 1.56 0 00-.332-.534zM73.629 61.17a1.765 1.765 0 00-1.128-.418c-.202.001-.403.037-.592.107a1.56 1.56 0 00-.908.842c-.1.232-.15.482-.145.735v3.639c-.006.255.043.51.145.745.09.195.22.369.384.508.152.14.33.25.524.32.19.07.39.106.592.107a1.714 1.714 0 001.128-.427c.158-.142.285-.315.374-.508.102-.235.151-.49.144-.745v-3.64a1.77 1.77 0 00-.144-.734 1.641 1.641 0 00-.374-.532zm-.463 4.904a.656.656 0 01-.197.527.727.727 0 01-.934 0 .65.65 0 01-.197-.526v-3.64a.653.653 0 01.197-.526.726.726 0 01.934 0 .652.652 0 01.197.527v3.639zM81.367 67.7v-6.89h-.953l-1.253 3.647h-.017l-1.263-3.646h-.943v6.888h.984v-4.19h.017l.964 2.962h.491l.971-2.962h.018v4.19h.984zM86.958 61.294c-.151-.17-.343-.3-.556-.377a2.184 2.184 0 00-.714-.106h-1.462v6.888h.981v-2.69h.506c.307.014.611-.05.886-.188a1.43 1.43 0 00.539-.527c.113-.183.19-.387.225-.6.038-.259.056-.52.053-.783.01-.33-.023-.661-.096-.984a1.467 1.467 0 00-.362-.633zm-.506 2.1a.866.866 0 01-.091.359.553.553 0 01-.253.241 1.007 1.007 0 01-.463.087h-.448v-2.342h.506a.941.941 0 01.443.086.556.556 0 01.23.255c.054.12.083.251.086.384v.457c0 .16.01.326 0 .473h-.01zM91.608 60.81h-.805l-1.518 6.89h.982l.288-1.48h1.338l.289 1.48h.981l-1.555-6.89zm-.906 4.471l.483-2.497h.018l.48 2.497h-.981zM97.95 64.96h-.018l-1.482-4.15h-.944v6.89h.981v-4.143h.02l1.5 4.142h.924V60.81h-.981v4.15zM103.948 60.81l-.79 2.74h-.02l-.789-2.74h-1.04l1.348 3.978v2.911h.982v-2.911l1.348-3.977h-1.039zM65 69.645h.473v1.327h.321v-1.327h.47v-.272H65v.272zM68.977 69.373l-.62 1.599h.341l.132-.364h.638l.136.364h.35l-.636-1.6h-.341zm-.05.966l.217-.593.217.593h-.435zM72.908 70.382h.37v.206a.613.613 0 01-.38.135.404.404 0 01-.34-.153.67.67 0 01-.118-.417c0-.356.154-.534.46-.534a.337.337 0 01.362.255l.316-.061c-.068-.313-.293-.47-.678-.47a.804.804 0 00-.559.205.78.78 0 00-.23.615.872.872 0 00.205.6.776.776 0 00.607.234.96.96 0 00.678-.254v-.63h-.693v.27zM76.923 69.373h-.324v1.599h1.12V70.7h-.796v-1.327zM80.317 69.373h-.323v1.599h.323v-1.6zM83.636 70.44l-.655-1.067h-.313v1.599h.3v-1.045l.643 1.045h.322v-1.6h-.297v1.069zM86.637 70.268h.797v-.272h-.797v-.351h.857v-.272h-1.181v1.599h1.214V70.7h-.89v-.432zM93.912 70.003h-.63v-.63h-.32v1.599h.32v-.7h.63v.7h.322v-1.6h-.322v.631zM96.93 70.268h.8v-.272h-.8v-.351h.86v-.272H96.61v1.599h1.212V70.7h-.89v-.432zM101.023 70.268c.279-.044.42-.191.42-.445a.38.38 0 00-.157-.356.903.903 0 00-.468-.094h-.678v1.599h.322v-.669h.063a.433.433 0 01.2.036c.047.029.086.069.114.117l.349.508h.384l-.195-.312a1.11 1.11 0 00-.354-.384zm-.324-.222h-.237v-.401h.253a.838.838 0 01.326.038.212.212 0 01.046.255.213.213 0 01-.061.07.915.915 0 01-.327.038zM104.11 70.268h.796v-.272h-.796v-.351h.86v-.272h-1.184v1.599H105V70.7h-.89v-.432z" fill="#AFB1B8"/></svg>
